X:1
T:Doran's Ass
M:2/4
L:1/8
K:A
 E| CE EE| FE F A/2A/2| d B/2B/2 cA| F/2F/2 EE E| CE E E/2E/2| F E/2E/2 FA|\
 d/2d/2 Bc A/2A/2| FE E d-| ce ec| BA FA| ce ec| BA B B/2B/2| ce e c/2c/2|\
 BA AB/2-c/2| d c/2B/2 cB/2-A/2| FE E2| CE E3/2 E/2| FE F/2 A3/2| dB c B/2A/2|\
 FE E||

